X: 1
T: Burley Mariners
T: Rights of Man
P: AABB x 3
C: TraditionalN: FIXME TRIPLETS
K: E minor
M: 4/4
L: 1/8P: A
GA | "Em"BcBA BGAF | "Am"GEFG "Em"AB2e | "C"fgfe "G"dedB | "Am"dcBA "D"GA2G | "Em"ABcB ABGA | "Am"FGEF "Em"GAB2 | "Am"efgf "D"edBg | "Em"fgfe2E2"Em"E2 :: P: B ga ba gf e | "Em"fgab gede | "D"fgaf gfef | "D"defg afdf | 
"Em"a2gf "G"e3f | "Em"g3a "C"baga | "Am"gfg2 "D"efgf | "Em"edBg fgfe2E2E2 :| 

